X:937
T:Tir A Mhuirein
C:Joe Buchanan's Scottish Tome - Page 547.4
I:547 4
Z:Carl Allison
R:Waltz
L:1/4
M:3/4
K:G
G2 B | A2 G | E2 G | E D2 | c2 B | e d B | A B G | A3 |
d2 B | G2 B | c2 e | d2 B | d>e d | B A G | A2 G | G3 :| 

